X:1
T:Title
%%score { ( 1 4 ) | ( 2 3 ) }
L:1/8
M:4/4
K:E
V:1 treble nm="Grand Piano"
V:4 treble 
V:2 bass 
V:3 bass 
V:1
 z4 z2[Q:1/4=100] EG | [GB]2 [GB]>[GB] [GB]2 [EG][GB] | [EAc]4 [CAe]2 [CAd][EAc] | %3
 [GB]2 [GB][GB] [Ac]B [EGB]>[B,EG] | [B,DF]6 [G,E][B,EG] | [GB]2 [GB]>[GB] [GB]2 [EG][GB] | %6
 [EAc]4 [CAe]2 [CAd][EAc] | [EGB]2 [FA][EG] [DF]2 [DB]>D |[M:3/4] E6 |[M:1/4] (3z G[B,FA] | %10
[M:4/4] B->[GB] G>G G2 (3E-[EG][GB] | c->[EAc] [CA]>[CA] [CA]2 [EAc]2 | %12
 [GB]3 [GB] [Ac][GB] [GB]>[EG] | [DF]6 (3EG[GB] | e->[Ge] G>G G2 (3E-[EG][GB] | %15
 c-[EAc]c-[EAc] [CA][CA] [EAc]>[EAc] | [GB]2 z2 z4 |[M:3/4] E6 |] %18
V:2
 z4 z2 [E,G,][E,B,E] | [E,E]2 [E,E]>[E,E] [E,E]2 [E,B,][E,E] | [A,,A,]4 [A,,A,]2 [A,,A,][A,,A,] | %3
 [E,E]2 [E,E][E,E] z G E,>E, | B,,6 E,E, | [E,E]2 [E,E]>[E,E] [E,E]2 [E,B,][E,E] | %6
 [A,,A,]4 [A,,A,]2 [A,,A,][A,,A,] | [B,,B,]2 [B,,B,][B,,B,] [B,,B,]2 [B,,F,]>[B,,A,B,] | %8
[M:3/4] [E,G,B,]6 |[M:1/4] (3[E,-G,][E,B,]E, | %10
[M:4/4] [E,E]>[E,E] [E,B,]>[E,B,] [E,B,]2 (3[E,-G,][E,B,][E,E] | %11
 [A,,A,]>[A,,A,] [A,,A,]>[A,,A,] [A,,A,]2 [A,,A,]2 | [E,E]3 [E,E] [E,E][E,E] [E,E]>[E,B,] | %13
 [B,,B,]6 (3[E,G,][E,B,E][E,E] | [E,B,]>[E,B,] [E,B,]>[E,B,] [E,B,]2 (3[E,-G,][E,B,][E,E] | %15
 [A,,A,][A,,A,][A,,A,][A,,A,] [A,,A,][A,,A,] [A,,A,]>[A,,A,] | %16
 [B,,B,][B,,B,][B,,B,][B,,B,] [B,,B,][B,,B,] [B,,F,]>[B,,A,B,] |[M:3/4] [E,G,B,]6 |] %18
V:3
 x8 | x8 | x8 | z4 [E,E]2 z2 | x8 | x8 | x8 | x8 |[M:3/4] x6 |[M:1/4] x2 |[M:4/4] x8 | x8 | x8 | %13
 x8 | x8 | x8 | x8 |[M:3/4] x6 |] %18
V:4
 x8 | x8 | x8 | x8 | x8 | x8 | x8 | x8 |[M:3/4] x6 |[M:1/4] E2 |[M:4/4] G2 z2 z4 | [EA]2 z2 z4 | %12
 x8 | x8 | G2 z2 z4 | .[EA]2 .[EA]2 z4 | EE[FA][EG] [DF]2 [DB]>D |[M:3/4] x6 |] %18

